X: 23
I: linebreak $
T: Tamrett
T: for two
C: Richard Schweitzer, CC BY-NC-SA 3.0
N: Permission granted to copy within the SCA.
N: Drone: F/C
K: F major
M: 6/8
L: 1/8
P: A
F3 D3 | F3 D3 | C2C D2C | D2E F3 :| 
P: B
F3 D3 | F3 D3 | 
A2A G2F | G2A F3 || 
P: C
AA2 G2F | G2A F3 | cc2 B2A | G3 F3 |: 
P: D
A2A G2F | G2A B3 | c2c B2A | G3 F3 :| 

